X:38
T:Bruce Osborne's Breakdown
R:reel
C:Bruce Osborne  --  July 1967
Z:abc by bosborne@kos,net
M:2/4
L:1/8
K:A
C/E/A/E/ F/A/A/B/|c/A/F/A/ EA/B/|c/A/F/A/ E/F/A/B/|c/A/B/c/ (3B/c/B/ A/B/|\
c/A/F/A/ E/F/A/B/|c/A/B/c/ de/f/|g/e/f/g/ e/f/g/e/|a/f/e/c/ A2:|
|:C/E/A/E/ F/A/A/B/|c/A/G/B/ ee|b/g/e/b/ (3g/b/g/ e|c/B/A/c/ E/B/[B e]|\
C/E/A/E/ F/A/A/B/|c/A/G/B/ ee/f/|g/e/f/g/ e/f/g/e/|a/f/e/c/ A2:|
